X: 10096
T: Die Alte Kath
R: waltz
M: 3/4
K: Gmajor
|:D3 C B,C D4|G2 F2 A2 G2 B2|D3 C B,C D4|G2 F2 A2 G2 z2:|
|:E2 cB c2 D2 BA|B2 D2 A2 G2 B2|E2 cB c2 D2 BA|B2 D2 A2 G2 z2:|
|:D3 C|B,C (D2|D2) G2|F2 A2|G2 B2|D3 C|B,C (D2|D2) G2|F2 A2|G2 z2:|
|:E2 cB|c2 D2|BA B2|D2 A2|G2 B2|E2 cB|c2 D2|BA B2|D2 A2|G2 z2:|

